views/1/public/assets/PerfectMoney.svg

<svg fill="none" height="80" viewBox="0 0 180 80" width="180" xmlns="http://www.w3.org/2000/svg"><path clip-rule="evenodd" d="m60 40.5393s17.7731 3.8661 20.2708-4.4556c2.4486-8.1595-5.672-9.8468-5.672-9.8468h-3.5676v13.6816h-3.8226v-13.2369h-3.3849v-1.3989s12.8242-.0514 14.2404.1155c7.1202.8387 10.5855 13.6902-.818 16.2511-8.8697 1.9917-17.2461-1.11-17.2461-1.11zm7.187 2.9477v8.2127s-.0223 1.7477-1.587 1.7477c-1.5648 0-1.9482 0-1.9482 0v1.3707h11.0315v-1.5081h-2.4403s-1.2588-.144-1.2588-1.4333c0-1.2894 0-8.4654 0-8.4654h-3.7754zm14.099 11.3993h11.1107v-1.7165h-3.1939s-1.0376-.5903-1.0376-1.7859c0-1.1955 0-20.6706 0-20.6706l12.3838 24.1468 12.114-23.6845-.266 20.4322s.304 1.6887-1.41 1.6887-2.078.0523-2.078.0523l-.02 1.3149h11.111v-1.5629h-2.594s-1.081.1068-1.081-1.0894c0-1.196 0-24.7994 0-24.7994s.016-.5416.973-.5416h2.252v-1.6704h-6.894l-11.35 23.699-11.2795-23.5316h-6.1688v1.4163h1.9587s.6791-.0756.6791.9644c0 1.0398-.2661 23.9458-.2661 23.9458s.0894 1.7781-1.8478 1.7781-3.0914 0-3.0914 0v1.728z" fill="#ececf1" fill-rule="evenodd"/></svg>

<?xml version="1.0" encoding="UTF-8"?> <svg xmlns="http://www.w3.org/2000/svg" width="180" height="80" viewBox="0 0 180 80" fill="none"><path fill-rule="evenodd" clip-rule="evenodd" d="M60 40.5393C60 40.5393 77.7731 44.4054 80.2708 36.0837C82.7194 27.9242 74.5988 26.2369 74.5988 26.2369H71.0312V39.9185H67.2086V26.6816H63.8237V25.2827C63.8237 25.2827 76.6479 25.2313 78.0641 25.3982C85.1843 26.2369 88.6496 39.0884 77.2461 41.6493C68.3764 43.641 60 40.5393 60 40.5393ZM67.187 43.487V51.6997C67.187 51.6997 67.1647 53.4474 65.6 53.4474C64.0352 53.4474 63.6518 53.4474 63.6518 53.4474V54.8181H74.6833V53.31H72.243C72.243 53.31 70.9842 53.166 70.9842 51.8767C70.9842 50.5873 70.9842 43.4113 70.9842 43.4113H67.2088L67.187 43.487ZM81.286 54.8863H92.3967V53.1698H89.2028C89.2028 53.1698 88.1652 52.5795 88.1652 51.3839C88.1652 50.1884 88.1652 30.7133 88.1652 30.7133L100.549 54.8601L112.663 31.1756L112.397 51.6078C112.397 51.6078 112.701 53.2965 110.987 53.2965C109.273 53.2965 108.909 53.3488 108.909 53.3488L108.889 54.6637H120V53.1008H117.406C117.406 53.1008 116.325 53.2076 116.325 52.0114C116.325 50.8154 116.325 27.212 116.325 27.212C116.325 27.212 116.341 26.6704 117.298 26.6704H119.55V25H112.656L101.306 48.699L90.0265 25.1674H83.8577V26.5837H85.8164C85.8164 26.5837 86.4955 26.5081 86.4955 27.5481C86.4955 28.5879 86.2294 51.4939 86.2294 51.4939C86.2294 51.4939 86.3188 53.272 84.3816 53.272C82.4444 53.272 81.2902 53.272 81.2902 53.272V55L81.286 54.8863Z" fill="#ECECF1"></path></svg>
